X: 25989
T: Mayn Ershtn Tants Bay Dir
R: waltz
M: 3/4
K: Aminor
e6-|e2 e3 c|e6-|e2 f2 d2|f6-|f2 f3 d|f6-|f2 d2 c2|
B4 f2|e4 ^d2|e6-|e2 d2 c2|B4 f2|e4 ^G2|A6-|A2:|

